public/icons/tokens/ampl.svg

<svg width="256" height="256" viewBox="0 0 256 256" fill="none" xmlns="http://www.w3.org/2000/svg">
    <path d="M255.75 128C255.75 198.554 198.554 255.75 128 255.75C57.4456 255.75 0.25 198.554 0.25 128C0.25 57.4456 57.4456 0.25 128 0.25C198.554 0.25 255.75 57.4456 255.75 128Z" fill="white" stroke="#383D51" stroke-width="0.5"/>
    <path d="M59.0901 192C58.9901 190.055 58.9601 188.11 59.0581 186.165C59.7056 185.975 60.3664 185.834 61.0351 185.744C62.9838 185.405 64.9105 184.951 66.8051 184.383C67.3241 184.221 67.8421 184.026 68.3611 183.832C70.8577 182.854 73.058 181.246 74.7471 179.164C75.9076 177.696 76.9277 176.123 77.7941 174.464C79.0159 172.182 80.109 169.834 81.0681 167.43C83.0131 162.568 84.9581 157.738 86.8681 152.876L106.707 102.7C112.964 86.782 119.112 70.8327 125.152 54.852L125.541 53.88C127.78 53.264 129.949 52.616 132.218 52C132.348 52.324 132.477 52.616 132.575 52.908C135.136 60.0413 137.686 67.1833 140.225 74.334C148.945 98.678 157.664 122.989 166.611 147.234C169.075 153.847 171.538 160.492 174.034 167.104C175.01 169.806 176.168 172.437 177.502 174.981C178.085 176.081 178.702 177.12 179.382 178.158C181.456 181.389 184.675 183.717 188.393 184.673C190.397 185.204 192.432 185.604 194.487 185.873L195.946 186.1C196.075 186.718 196.109 187.352 196.046 187.98V189.957C196.068 190.594 196.057 191.233 196.014 191.869C195.82 191.901 195.657 191.934 195.463 191.969H144.18C144.117 191.858 144.074 191.737 144.05 191.612V186.36C144.057 186.281 144.079 186.204 144.115 186.133C144.541 186.012 144.976 185.926 145.415 185.874C147.524 185.592 149.613 185.18 151.671 184.642C152.497 184.41 153.309 184.128 154.102 183.799C154.504 183.631 154.893 183.436 155.269 183.216C156.2 182.74 156.958 181.983 157.435 181.052C157.912 180.121 158.084 179.064 157.927 178.03C157.841 176.999 157.656 175.979 157.376 174.983C156.955 173.427 156.404 171.904 155.885 170.413C145.25 140.752 134.736 111.048 124.341 81.3C124.28 80.9346 124.111 80.596 123.855 80.328C123.743 80.3854 123.635 80.4502 123.531 80.522C123.439 80.6716 123.373 80.8361 123.337 81.008C118.248 95.627 112.837 110.149 107.454 124.638C103.466 135.371 99.4801 146.133 95.7801 156.959C94.2891 161.303 92.8631 165.679 91.4691 170.059C90.9279 171.73 90.5265 173.443 90.2691 175.181C90.0735 176.348 90.0399 177.537 90.1691 178.714C90.2515 179.473 90.4934 180.206 90.8789 180.866C91.2644 181.525 91.7848 182.095 92.4061 182.539C93.2289 183.126 94.1359 183.585 95.0961 183.9C96.6115 184.444 98.1743 184.846 99.7641 185.1C101.514 185.424 103.264 185.683 105.048 185.943C105.178 185.975 105.275 185.975 105.437 186.008L105.537 186.397V191.486C105.531 191.586 105.509 191.685 105.472 191.778C105.313 191.816 105.15 191.837 104.986 191.843H104.305L59.0901 192Z" fill="black"/>
</svg>

<svg width="256" height="256" viewBox="0 0 256 256" fill="none" xmlns="http://www.w3.org/2000/svg"><path d="M255.75 128c0 70.554-57.196 127.75-127.75 127.75S.25 198.554.25 128 57.446.25 128 .25 255.75 57.446 255.75 128Z" fill="#fff" stroke="#383D51" stroke-width=".5"/><path d="M59.09 192c-.1-1.945-.13-3.89-.032-5.835.648-.19 1.308-.331 1.977-.421a49.831 49.831 0 0 0 5.77-1.361c.52-.162 1.037-.357 1.556-.551a15.505 15.505 0 0 0 6.386-4.668 29.888 29.888 0 0 0 3.047-4.7 69.33 69.33 0 0 0 3.274-7.034c1.945-4.862 3.89-9.692 5.8-14.554l19.839-50.176a3895.314 3895.314 0 0 0 18.445-47.848l.389-.972c2.239-.616 4.408-1.264 6.677-1.88.13.324.259.616.357.908a6493.547 6493.547 0 0 1 7.65 21.426c8.72 24.344 17.439 48.655 26.386 72.9 2.464 6.613 4.927 13.258 7.423 19.87a63.172 63.172 0 0 0 3.468 7.877c.583 1.1 1.2 2.139 1.88 3.177a15.21 15.21 0 0 0 9.011 6.515c2.004.531 4.039.931 6.094 1.2l1.459.227c.129.618.163 1.252.1 1.88v1.977c.022.637.011 1.276-.032 1.912-.194.032-.357.065-.551.1H144.18a1.169 1.169 0 0 1-.13-.357v-5.252a.623.623 0 0 1 .065-.227 8.355 8.355 0 0 1 1.3-.259 51.966 51.966 0 0 0 6.256-1.232 21.558 21.558 0 0 0 2.431-.843 9.768 9.768 0 0 0 1.167-.583 4.982 4.982 0 0 0 2.658-5.186 16.25 16.25 0 0 0-.551-3.047c-.421-1.556-.972-3.079-1.491-4.57A11668.71 11668.71 0 0 1 124.341 81.3a1.847 1.847 0 0 0-.486-.972 2.89 2.89 0 0 0-.324.194c-.092.15-.158.314-.194.486-5.089 14.619-10.5 29.141-15.883 43.63-3.988 10.733-7.974 21.495-11.674 32.321a613.2 613.2 0 0 0-4.31 13.1 31.69 31.69 0 0 0-1.2 5.122 12.875 12.875 0 0 0-.1 3.533 5.428 5.428 0 0 0 2.236 3.825 9.999 9.999 0 0 0 2.69 1.361 25.92 25.92 0 0 0 4.668 1.2c1.75.324 3.5.583 5.284.843.13.032.227.032.389.065l.1.389v5.089a.945.945 0 0 1-.065.292 2.481 2.481 0 0 1-.486.065h-.681L59.09 192Z" fill="#000"/></svg>
